icon/blocto/main.svg

<svg xmlns="http://www.w3.org/2000/svg" width="22" height="22" viewBox="0 0 22 22">
  <path fill="#FFF" fill-rule="evenodd" d="M15.4644415,14.197827 C15.741043,14.197827 15.9685815,14.409195 15.9963128,14.6797885 L15.998446,14.7230551 L15.9941796,14.8379598 C15.6596269,18.8475675 12.2085077,22 8.00046733,22 C3.83509048,22 0.411346963,18.9110488 0.0177764461,14.9592482 L0.00142211569,14.776961 L0.000355528922,14.7234097 L0.00213317353,14.6833349 C0.0280867848,14.4109682 0.256691882,14.197827 0.53435997,14.197827 L15.4644415,14.197827 Z M0.299710881,0 C4.08253861,0 7.11697796,2.92829739 7.11697796,6.5456685 L7.11697796,12.9409679 C7.11662243,13.2346133 6.87806253,13.4729342 6.58368458,13.4732888 L0.533648912,13.4764822 C0.238915436,13.4771899 1.19904087e-14,13.238869 1.19904087e-14,12.9452236 L0.000355528922,0.298610439 C0.000355528922,0.146113422 0.114480313,0.0205693652 0.262024816,0.00248250959 L0.299710881,0 Z M8.74423384,5.95695909 C12.0403425,6.1126479 14.7345406,8.31392462 15.6724259,11.3124416 L15.707,11.426 L15.7480966,11.5451058 C15.8726105,11.9108136 15.9556301,12.2195724 15.9973794,12.7065496 C16.0307991,13.0970129 15.7406875,13.4403085 15.3496057,13.4736451 L15.3193857,13.4757729 L12.2422829,13.4764822 C10.1386183,13.4764822 8.42674651,11.9926492 8.37199506,9.91088758 L8.37057294,9.80804075 L8.37057294,6.31940549 C8.37057294,6.11654899 8.53980471,5.94738369 8.74423384,5.95695909 Z" transform="translate(3)"/>
</svg>

<svg xmlns="http://www.w3.org/2000/svg" xmlns:xlink="http://www.w3.org/1999/xlink" width="22" height="22" viewBox="0 0 22 22">
    <defs>
        <path id="asq60nmcua" d="M15.464 14.198c.277 0 .505.211.532.482l.002.043-.004.115C15.66 18.848 12.21 22 8 22 3.835 22 .411 18.911.018 14.96L0 14.776v-.054l.001-.04c.026-.272.255-.485.532-.485h14.93zM.3 0c3.783 0 6.817 2.928 6.817 6.546v6.395c0 .294-.239.532-.533.532l-6.05.003c-.295.001-.534-.237-.534-.53V.298C0 .146.114.02.262.002L.3 0zm8.444 5.957c3.296.156 5.99 2.357 6.928 5.355l.035.114.041.12c.125.365.208.674.25 1.16.033.391-.257.734-.648.768l-.03.002h-3.078c-2.103 0-3.815-1.483-3.87-3.565l-.001-.103V6.319c0-.202.169-.372.373-.362z"/>
    </defs>
    <g fill="none" fill-rule="evenodd">
        <g>
            <g>
                <path d="M0 0H22V22H0z" transform="translate(-17 -14) translate(17 14)"/>
                <g transform="translate(-17 -14) translate(17 14) translate(3)">
                    <mask id="8qczj6cbcb" fill="#fff">
                        <use xlink:href="#asq60nmcua"/>
                    </mask>
                    <g fill="#FFF" mask="url(#8qczj6cbcb)">
                        <path d="M0 0H22V22H0z" transform="translate(-3)"/>
                    </g>
                </g>
            </g>
        </g>
    </g>
</svg>
